texonslab.svg

<svg viewBox="0 0 24 24" xmlns="http://www.w3.org/2000/svg"><path d="M3.91263 6.20396C3.839 6.23702 3.75399 6.24354 3.66652 6.25658C3.33454 6.30268 2.99618 6.32921 2.66416 6.36204C2.55087 6.3753 2.4711 6.36878 2.45819 6.38857C2.3988 6.50707 2.51777 8.33198 2.53115 8.6146C2.54476 8.85858 2.5513 9.056 2.54473 9.10931C2.53819 9.18171 2.42463 9.2541 2.27279 9.2541C2.09331 9.2541 1.75475 9.17517 1.62874 8.8786C1.60976 8.82519 1.59853 8.76939 1.59541 8.71289C1.53536 8.25845 1.55531 6.9343 1.55531 6.48683C1.34931 6.49987 1.00395 6.52618 0.798401 6.52618C0.75402 6.52778 0.70957 6.5256 0.665588 6.51966C0.433056 6.50032 0.0226644 6.27637 0.00158519 6.0722C-0.0183635 5.92088 0.154085 5.86803 0.287131 5.86803C0.353521 5.86803 0.433056 5.87456 0.519395 5.87456C0.543994 5.87536 0.568558 5.87317 0.592625 5.86803C0.970849 5.83498 1.68039 5.64318 2.8303 5.64318C3.08206 5.64318 3.35469 5.6497 3.64614 5.67601C3.81905 5.68928 4.03797 5.81452 4.05812 5.99867C4.0715 6.11178 3.99197 6.17766 3.91263 6.20396ZM6.29129 5.67016C5.96584 5.74302 5.61391 5.80215 5.47545 5.82756C5.34241 5.85387 5.23592 5.88018 5.15635 5.89996C5.11104 6.26243 5.02991 7.31654 4.98344 7.77749C5.26898 7.6853 5.46141 7.59312 5.78025 7.58658C6.20541 7.57984 6.63031 7.84338 6.64369 7.98187C6.63031 8.15973 6.33819 8.31757 6.15237 8.31757L6.09278 8.31757C5.82081 8.31757 5.28236 8.50894 5.00498 8.58741C5.01132 8.62048 5.01132 8.66655 5.01789 8.7259C5.0308 8.83136 5.04442 8.95077 5.05142 9.04879C5.05779 9.11468 5.05779 9.16122 5.07094 9.18708C5.17676 9.1673 5.28329 9.13447 5.39635 9.10144C5.57583 9.05533 5.79476 9.00272 5.92734 9.00272C6.14669 9.00272 6.71124 9.19362 6.72415 9.32561C6.75768 9.60893 5.74832 9.82612 5.5294 9.88528C5.36282 9.92508 5.18944 10.004 5.02447 10.004C4.89145 10.004 4.7124 9.959 4.59389 9.80657C4.40149 9.56913 4.29497 9.18058 4.2483 8.77875C4.16896 8.15953 4.19548 7.40849 4.24193 6.8023C4.28727 6.22263 4.34845 5.78776 4.35525 5.73515C4.34188 5.64948 4.28182 5.57056 4.26891 5.4714C4.26234 5.3927 4.28182 5.25419 4.4484 5.22788C4.78018 5.18179 5.1056 5.10938 5.37756 5.0498C5.66287 4.99066 5.92143 4.94456 6.10795 4.94456C6.26025 4.94456 6.90477 5.1159 6.92379 5.38595C6.92877 5.47252 6.63622 5.59147 6.29129 5.67016ZM10.1903 6.61252C10.1103 6.68492 9.89846 6.84278 9.65302 7.03412C9.45992 7.18569 9.24104 7.35677 9.07513 7.50834C9.314 7.71272 9.62607 7.99581 9.71241 8.06821C9.7629 8.10987 9.79606 8.16856 9.80555 8.23302C9.82504 8.38459 9.67885 8.48351 9.53358 8.48351C9.34119 8.48351 9.12226 8.29892 8.97564 8.18695C8.8569 8.10127 8.73677 8.00235 8.63071 7.91711C8.48479 8.03584 8.36489 8.1674 8.23234 8.29938C8.10633 8.42439 7.84708 8.70795 7.6415 8.70795C7.48289 8.70795 7.3759 8.56942 7.35596 8.41135C7.34536 8.29822 7.35622 8.18413 7.38792 8.07498C7.45388 7.89058 7.7922 7.54117 7.96535 7.36982C7.78586 7.21244 7.29501 6.84952 7.26782 6.62557C7.25491 6.52011 7.38792 6.44119 7.52027 6.44119C7.56694 6.44119 7.67347 6.44771 7.73942 6.50032C7.78586 6.53338 8.13126 6.74406 8.43672 6.96172C8.72864 6.65862 9.35251 6.14483 9.48555 6.04567C9.53348 6.00848 9.5934 5.98986 9.65415 5.99328C9.89959 5.99328 10.2114 6.26962 10.238 6.46097C10.2426 6.48817 10.2408 6.51608 10.2325 6.54242C10.2242 6.56876 10.2098 6.59279 10.1903 6.61252L10.1903 6.61252ZM11.7062 8.8062C11.0553 8.8062 10.5905 8.28587 10.5246 7.75883C10.4444 7.11305 10.8965 6.01306 11.839 6.01306C11.958 6.01306 12.1375 6.02611 12.2771 6.15112C12.5561 6.16462 12.9678 6.35552 13.054 7.06044C13.061 7.13958 13.0739 7.23176 13.0739 7.32374C13.0807 7.99581 12.4103 8.8062 11.7062 8.8062ZM12.2708 6.7969C12.2242 6.77851 12.1744 6.76949 12.1243 6.77037C11.6659 6.77037 11.168 7.46223 11.2215 7.85752C11.2344 7.96298 11.2679 8.02214 11.3801 8.02214C11.5997 8.02214 11.9317 7.81145 12.0441 7.63986C12.1835 7.41503 12.2895 6.98084 12.2708 6.80297L12.2708 6.7969ZM17.6106 8.68096C17.6306 8.93145 17.2392 9.03014 17.0862 9.03014C17.0261 9.03014 16.9467 9.02363 16.8804 8.98406C16.714 8.8786 16.2563 8.4307 15.8111 7.99581C15.5393 7.726 15.2604 7.44899 14.968 7.18635C15.0008 7.85168 15.0281 8.94516 15.0008 9.22848C14.9945 9.33391 14.9215 9.43263 14.7821 9.43263C14.5099 9.43263 14.2045 9.06363 14.1779 8.85971C14.1381 8.5105 14.232 6.56643 14.1846 6.10458C14.1716 5.92672 14.397 5.82127 14.57 5.82127C14.6447 5.82173 14.718 5.84224 14.7821 5.88063C14.8687 5.94651 15.3866 6.45378 15.8911 6.95452C16.2294 7.29181 16.5819 7.63312 16.8146 7.87013C16.7874 7.21805 16.7466 5.81497 16.8146 5.41293C16.8339 5.28791 16.9398 5.24182 17.0397 5.24182C17.3388 5.24182 17.6243 5.54492 17.6644 5.80822C17.6774 5.91368 17.6774 6.07805 17.6644 6.27592C17.6239 7.08022 17.5575 7.87057 17.6106 8.68096ZM18.9683 6.36204C18.8618 6.41488 18.6364 6.49403 18.4833 6.49403C18.3904 6.49403 18.251 6.45423 18.2314 6.32921C18.2048 6.11852 18.9753 5.02506 19.1808 4.93917C19.2292 4.92147 19.2807 4.91256 19.3325 4.91286C19.4789 4.91286 19.8175 5.01157 19.844 5.21574C19.8709 5.43317 19.2402 6.22375 18.9683 6.36204ZM23.596 6.43466C23.538 6.4365 23.4805 6.42274 23.4297 6.39487C23.3846 6.36878 23.2976 6.34247 23.138 6.34247C22.3147 6.34247 20.7131 6.94193 20.3695 7.29115C20.4521 7.31594 20.5361 7.33569 20.6214 7.35027C20.967 7.42267 22.2616 7.6862 22.4797 7.81795C22.5929 7.88384 22.8913 8.17367 22.9182 8.4307C22.9312 8.52939 22.9112 8.62834 22.8116 8.70051C22.5992 8.87186 21.4769 9.36584 21.198 9.36584C20.9458 9.36584 20.4614 9.17493 20.4409 9.00361C20.4345 8.96405 20.4545 8.92448 20.4744 8.89118C20.6075 8.68049 22.0014 8.44328 22.0282 8.29171C22.0219 8.28544 22.0083 8.29171 21.9947 8.28544C21.9549 8.2787 21.8888 8.26542 21.8294 8.25238C21.298 8.11409 20.176 8.00189 19.7773 7.59355C19.691 7.50788 19.6445 7.35634 19.6309 7.23784C19.6116 7.07302 19.6309 6.83604 19.764 6.71078C20.076 6.42073 21.7092 5.65015 22.9441 5.65015C23.3431 5.65015 23.675 5.76888 23.9542 6.08502C23.9765 6.11405 23.9921 6.14782 23.9994 6.18373C24.0143 6.30268 23.762 6.43466 23.596 6.43466ZM7.20867 17.0392C6.84106 17.4246 5.43081 18.4688 4.85836 18.4688C4.53132 18.4688 4.19432 18.2963 3.86755 18.0641C3.73474 17.9723 3.67309 17.7594 3.64272 17.5768C3.54051 16.7563 3.52942 13.887 3.72431 13.1168C3.79595 12.8221 4.08216 12.7213 4.30676 12.7213C4.80757 12.7213 5.18536 13.0755 5.23589 13.5016C5.2973 14.0387 5.18466 15.5594 5.27691 16.6549C5.53255 16.5227 6.21673 16.1175 6.54374 16.1175C6.79914 16.1175 7.27957 16.2693 7.33079 16.6855C7.34062 16.7498 7.33461 16.8156 7.31337 16.8772C7.29209 16.9387 7.25617 16.9943 7.20867 17.0392L7.20867 17.0392ZM13.3935 18.7222C13.2299 18.9246 12.8826 19.0871 12.5864 19.0871C12.4636 19.0871 12.239 19.0674 12.0756 18.8848C11.9324 18.7222 11.5952 17.2627 11.5031 16.9178C10.7678 17.0696 9.8488 17.2117 9.45969 17.2627C9.30626 17.5467 9.09212 18.3071 8.89767 18.4787C8.7855 18.5803 8.63184 18.601 8.46845 18.601C8.21305 18.601 7.67141 18.4886 7.62065 18.0231C7.50736 17.1208 9.89913 13.1461 10.1853 13.0049C10.4969 12.8515 10.8388 12.7683 11.1866 12.7614C11.4624 12.7614 11.779 12.8513 11.9016 13.0858C12.4321 14.0284 13.3418 17.2926 13.4543 18.2466C13.4842 18.4283 13.4745 18.6208 13.3935 18.7222ZM10.9506 14.0284C10.8686 14.0383 10.5112 15.0423 10.1432 15.8124C10.5073 15.7261 10.8757 15.6586 11.2468 15.61C11.1752 15.1032 11.0019 14.0284 10.9506 14.0284ZM17.7388 15.9444C18.1374 16.1674 18.5255 16.5024 18.5872 16.9582C18.7303 18.1443 16.7987 18.8445 15.8078 18.8445C15.3172 18.8445 14.735 18.3274 14.6427 17.881C14.6327 17.81 14.6121 17.7185 14.6018 17.6276C14.4385 16.2382 14.7758 12.5988 15.0931 12.3555C15.369 12.1426 16.074 12.0915 16.6569 12.0915C17.5765 12.0915 18.8641 12.2235 19.436 12.5579C19.855 12.8014 20.3652 13.3388 20.4272 13.8357C20.5384 14.7277 18.719 15.5709 17.7388 15.9444ZM16.2261 16.5827C16.2058 16.9072 16.1955 17.3124 16.1955 17.6467C16.5328 17.5343 16.8903 17.3529 16.8495 17.0796C16.8296 16.8975 16.5839 16.7048 16.2261 16.5827ZM17.2276 13.3278C16.975 13.3271 16.7223 13.3409 16.4711 13.3691C16.4203 13.7644 16.3695 14.5552 16.3283 15.092C17.3295 14.8185 18.7303 14.3423 18.6583 13.592C18.6377 13.4301 18.1577 13.3284 17.2282 13.3284L17.2276 13.3278Z" fill="#000000"/></svg>

<svg viewBox="0 0 24 24" xmlns="http://www.w3.org/2000/svg"><path d="M3.913 6.204c-.074.033-.159.04-.246.053-.332.046-.67.072-1.003.105-.113.013-.193.007-.206.027-.06.118.06 1.943.073 2.226.014.244.02.441.014.494-.007.073-.12.145-.272.145-.18 0-.518-.079-.644-.375a.592.592 0 0 1-.034-.166c-.06-.455-.04-1.779-.04-2.226-.206.013-.551.04-.757.04a.782.782 0 0 1-.132-.007C.433 6.5.023 6.276.002 6.072c-.02-.151.152-.204.285-.204.067 0 .146.007.232.007.025 0 .05-.002.074-.007.378-.033 1.087-.225 2.237-.225.252 0 .525.007.816.033.173.013.392.139.412.323.014.113-.066.179-.145.205ZM6.29 5.67c-.325.073-.677.132-.816.158-.133.026-.24.052-.319.072-.045.362-.126 1.417-.173 1.877.286-.092.478-.184.797-.19.425-.007.85.256.864.395-.014.178-.306.336-.492.336h-.06c-.271 0-.81.19-1.087.27.006.032.006.079.013.138.013.105.026.225.033.323.007.066.007.112.02.138.106-.02.212-.053.325-.086.18-.046.399-.098.531-.098.22 0 .784.19.797.323.034.283-.976.5-1.195.56-.166.04-.34.118-.505.118a.541.541 0 0 1-.43-.197c-.193-.238-.299-.626-.346-1.028-.079-.62-.053-1.37-.006-1.977.045-.58.106-1.014.113-1.067-.013-.086-.073-.164-.086-.264-.007-.078.013-.217.18-.243.331-.046.657-.119.929-.178.285-.06.543-.105.73-.105.152 0 .797.17.816.44.005.088-.288.206-.633.285Zm3.9.943c-.08.072-.293.23-.538.421-.193.152-.412.323-.578.474.239.205.551.488.637.56.05.042.084.1.094.165.019.152-.127.25-.272.25-.193 0-.412-.184-.558-.296-.12-.086-.24-.185-.345-.27-.146.119-.266.25-.399.382-.126.125-.385.409-.59.409-.16 0-.266-.139-.286-.297a.904.904 0 0 1 .032-.336c.066-.184.404-.534.577-.705-.18-.158-.67-.52-.697-.744-.013-.106.12-.185.252-.185.047 0 .153.007.22.06.046.032.391.243.697.46.292-.302.916-.816 1.049-.915a.252.252 0 0 1 .168-.053c.246 0 .557.277.584.468a.174.174 0 0 1-.048.152Zm1.515 2.193c-.65 0-1.115-.52-1.181-1.047-.08-.646.371-1.746 1.314-1.746.119 0 .298.013.438.138.28.014.69.205.777.91.007.079.02.17.02.263.007.672-.664 1.482-1.368 1.482Zm.565-2.01a.38.38 0 0 0-.147-.026c-.458 0-.956.692-.902 1.088.012.105.046.164.158.164.22 0 .552-.21.664-.382.14-.225.245-.66.227-.837v-.006Zm5.34 1.885c.02.25-.372.35-.525.35a.404.404 0 0 1-.206-.047c-.166-.105-.624-.553-1.069-.988-.272-.27-.55-.547-.843-.81.033.666.06 1.76.033 2.042a.209.209 0 0 1-.219.205c-.272 0-.578-.37-.604-.573-.04-.35.054-2.294.007-2.755-.013-.178.212-.284.385-.284.075 0 .148.021.212.06.087.066.605.573 1.11 1.074.337.337.69.678.923.915-.028-.652-.068-2.055 0-2.457.019-.125.125-.171.225-.171.299 0 .584.303.624.566.013.106.013.27 0 .468-.04.804-.107 1.595-.053 2.405Zm1.357-2.319a1.341 1.341 0 0 1-.485.132c-.093 0-.232-.04-.252-.165-.026-.21.744-1.304.95-1.39a.435.435 0 0 1 .151-.026c.147 0 .485.099.512.303.027.217-.604 1.008-.876 1.146Zm4.628.073a.325.325 0 0 1-.166-.04c-.045-.026-.132-.053-.292-.053-.823 0-2.425.6-2.769.95.083.024.167.044.252.058.346.073 1.64.336 1.859.468.113.066.411.356.438.613.013.098-.007.197-.106.27-.213.17-1.335.665-1.614.665-.252 0-.737-.191-.757-.362-.006-.04.014-.08.033-.113.134-.21 1.527-.448 1.554-.6-.006-.006-.02 0-.033-.006a4.026 4.026 0 0 1-.166-.033c-.531-.138-1.653-.25-2.052-.658-.086-.086-.133-.238-.146-.356-.02-.165 0-.402.133-.527.312-.29 1.945-1.06 3.18-1.06.4 0 .731.118 1.01.434a.241.241 0 0 1 .045.099c.015.119-.237.25-.403.25ZM7.209 17.039c-.368.386-1.778 1.43-2.35 1.43-.328 0-.665-.173-.991-.405-.133-.092-.195-.305-.225-.487-.102-.82-.114-3.69.081-4.46.072-.295.358-.396.583-.396.5 0 .878.354.929.78.061.538-.051 2.058.04 3.154.257-.132.94-.538 1.268-.538.255 0 .736.152.787.569a.402.402 0 0 1-.122.353Zm6.184 1.683c-.163.203-.51.365-.807.365-.122 0-.347-.02-.51-.202-.144-.163-.48-1.622-.573-1.967-.735.152-1.654.294-2.043.345-.154.284-.368 1.044-.562 1.216-.112.101-.266.122-.43.122-.255 0-.797-.112-.847-.578-.114-.902 2.278-4.877 2.564-5.018a2.374 2.374 0 0 1 1.002-.244c.275 0 .592.09.715.325.53.942 1.44 4.207 1.552 5.16.03.182.02.375-.06.476Zm-2.442-4.694c-.082.01-.44 1.014-.808 1.784.364-.086.733-.153 1.104-.202-.072-.507-.245-1.582-.296-1.582Zm6.788 1.916c.398.223.787.558.848 1.014.143 1.186-1.788 1.887-2.78 1.887-.49 0-1.072-.518-1.164-.964-.01-.071-.03-.163-.041-.253-.164-1.39.174-5.03.491-5.273.276-.212.981-.264 1.564-.264.92 0 2.207.133 2.779.467.419.243.93.78.991 1.278.111.892-1.708 1.735-2.688 2.108Zm-1.513.639c-.02.324-.03.73-.03 1.064.337-.113.694-.294.653-.567-.02-.182-.265-.375-.623-.497Zm1.002-3.255c-.253 0-.506.013-.757.041-.05.395-.102 1.186-.143 1.723 1.002-.274 2.402-.75 2.33-1.5-.02-.162-.5-.264-1.43-.264Z"/></svg>
